icon/lg/aws-lightsail.svg

<?xml version="1.0" encoding="UTF-8"?>
<svg viewBox="0 0 256 221" version="1.1" xmlns="http://www.w3.org/2000/svg" xmlns:xlink="http://www.w3.org/1999/xlink" preserveAspectRatio="xMidYMid" height="1em" width="1em">
  <g>
    <path d="M145.725549,4.26325641e-14 C175.033784,4.26325641e-14 202.602013,11.3644178 223.427717,32.0269956 C244.307795,52.7983239 255.889714,80.4209279 255.999238,109.892289 C256.107215,139.36365 244.742797,167.095004 223.971469,187.975083 C203.20014,208.855162 175.577536,220.43708 146.106175,220.545831 L145.671174,220.545831 C91.6765953,220.545831 46.0014233,182.048186 36.9751393,128.869235 C36.4313872,125.715474 38.5520202,122.670462 41.7601573,122.12671 C44.9682944,121.637333 47.9589306,123.703591 48.5026827,126.911728 C56.6045882,174.435657 97.440367,208.855162 145.671174,208.855162 L146.0518,208.855162 C172.369399,208.746411 197.110117,198.415122 215.652062,179.710052 C234.194007,161.004981 244.36217,136.209888 244.25342,109.892289 C244.14467,83.5746898 233.813381,58.8339716 215.10831,40.2920268 C196.51199,21.8044571 171.880022,11.690669 145.671174,11.690669 L145.290547,11.690669 C97.1141158,11.8537946 56.3327122,46.4364249 48.3939323,93.9059787 C47.8501802,97.1141158 44.859544,99.2347488 41.6514069,98.6909967 C38.4432698,98.1472447 36.3226368,95.1566084 36.8663889,91.9484713 C45.8382977,38.8782714 91.4047193,0.217500819 145.290547,4.26325641e-14 L145.725549,4.26325641e-14 Z M152.141823,30.3957395 L161.113732,38.5520202 C162.364362,39.6938995 192.161974,67.2077531 193.630104,107.717281 C194.554483,133.545503 183.679442,158.449347 161.385608,181.830685 L151.978697,191.672597 L152.359324,178.024421 C152.413699,175.958163 152.957451,128.488609 105.487897,116.471689 C102.660387,115.764811 100.702879,113.209176 100.648504,110.327291 C100.648504,107.39103 102.551636,104.835395 105.379147,104.074142 C151.055406,91.732058 152.272209,45.8791062 152.304109,42.692396 L152.304949,42.5214102 L152.304949,42.5214102 L152.141823,30.3957395 Z M94.504106,142.299911 C94.504106,153.229327 103.367264,162.03811 114.242305,162.03811 C103.367264,162.03811 94.5584812,170.846894 94.504106,181.77631 C94.504106,170.846894 85.6409476,162.03811 74.7659066,162.03811 C85.6953228,162.03811 94.504106,153.174952 94.504106,142.299911 Z M161.548733,54.5383304 C158.666848,70.3071398 149.423063,97.0597406 119.734201,110.10979 C149.694939,122.724837 158.884348,149.586188 161.657484,165.572499 C176.610665,147.030554 183.842567,127.781731 183.13569,108.097907 C182.320062,84.2271923 169.922515,64.9239945 161.548733,54.5383304 Z M217.5,115.549 L217.504021,115.86463 C217.672356,124.200054 224.458127,130.881118 232.834627,130.881118 C224.352095,130.881118 217.500819,137.732394 217.500819,146.214926 C217.500819,137.732394 210.649543,130.881118 202.167011,130.881118 C210.649543,130.881118 217.500819,124.029842 217.500819,115.54731 L217.5,115.549 Z M40.7814036,104.99852 C43.6632895,104.99852 46.0557985,107.336654 46.0557985,110.272915 C46.0557985,113.154801 43.7176647,115.54731 40.7814036,115.54731 L31.4832436,115.54731 C28.6013577,115.54731 26.2088487,113.209176 26.2088487,110.272915 C26.2088487,107.39103 28.5469825,104.99852 31.4832436,104.99852 L40.7814036,104.99852 Z M14.6269301,104.99852 C17.5088159,104.99852 19.901325,107.336654 19.901325,110.272915 C19.8469498,113.154801 17.5088159,115.54731 14.6269301,115.54731 L5.27439487,115.54731 C2.39250901,115.54731 0,113.209176 0,110.272915 C0,107.39103 2.33813381,104.99852 5.27439487,104.99852 L14.6269301,104.99852 Z M65.9571234,104.99852 C68.8390093,104.99852 71.2315183,107.336654 71.2315183,110.272915 C71.1771431,113.154801 68.8390093,115.54731 65.9571234,115.54731 L54.8102065,115.54731 C51.9283206,115.54731 49.5358116,113.209176 49.5358116,110.272915 C49.5358116,107.39103 51.8739454,104.99852 54.8102065,104.99852 L65.9571234,104.99852 Z M89.2297111,104.99852 C92.111597,104.99852 94.504106,107.336654 94.504106,110.272915 C94.504106,113.154801 92.1659722,115.54731 89.2297111,115.54731 L79.8771759,115.54731 C76.99529,115.54731 74.602781,113.209176 74.602781,110.272915 C74.602781,107.39103 76.9409148,104.99852 79.8771759,104.99852 L89.2297111,104.99852 Z M114.242305,36.9207641 C114.242305,44.8051688 120.604204,51.1670677 128.488609,51.1670677 C120.604204,51.1670677 114.242305,57.5289667 114.242305,65.4133714 L114.242,65.391 L114.238924,65.0988187 C114.074635,57.4650196 107.944353,51.3347385 100.310554,51.1704493 L99.9960016,51.1670677 C107.880406,51.1670677 114.242305,44.8051688 114.242305,36.9207641 Z" fill="#E17107"/>
  </g>
</svg>

<svg width="256" height="221" xmlns="http://www.w3.org/2000/svg" preserveAspectRatio="xMidYMid"><path d="M145.726 0c29.308 0 56.876 11.364 77.702 32.027 20.88 20.771 32.462 48.394 32.571 77.865.108 29.472-11.256 57.203-32.028 78.083-20.77 20.88-48.393 32.462-77.865 32.57h-.435c-53.994 0-99.67-38.497-108.696-91.676a5.843 5.843 0 0 1 4.785-6.742c3.208-.49 6.199 1.577 6.743 4.785 8.102 47.524 48.937 81.943 97.168 81.943h.38c26.318-.109 51.06-10.44 69.601-29.145 18.542-18.705 28.71-43.5 28.601-69.818-.108-26.317-10.44-51.058-29.145-69.6-18.596-18.488-43.228-28.601-69.437-28.601h-.38c-48.177.163-88.958 34.745-96.897 82.215a5.814 5.814 0 0 1-6.743 4.785 5.814 5.814 0 0 1-4.785-6.743C45.838 38.878 91.405.218 145.291 0h.435Zm6.416 30.396 8.972 8.156c1.25 1.142 31.048 28.656 32.516 69.165.924 25.829-9.95 50.732-32.244 74.114l-9.407 9.842.38-13.649c.055-2.066.598-49.535-46.871-61.552-2.828-.707-4.785-3.263-4.84-6.145 0-2.936 1.904-5.492 4.731-6.253 45.676-12.342 46.893-58.195 46.925-61.382v-.17l-.162-12.126ZM94.504 142.3c0 10.93 8.863 19.738 19.738 19.738-10.875 0-19.684 8.809-19.738 19.738 0-10.93-8.863-19.738-19.738-19.738 10.93 0 19.738-8.863 19.738-19.738Zm67.045-87.762c-2.882 15.77-12.126 42.522-41.815 55.572 29.96 12.615 39.15 39.476 41.923 55.462 14.954-18.541 22.186-37.79 21.479-57.474-.816-23.87-13.213-43.174-21.587-53.56ZM217.5 115.55l.004.316c.168 8.335 6.954 15.016 15.33 15.016-8.482 0-15.333 6.851-15.333 15.334 0-8.483-6.851-15.334-15.334-15.334 8.483 0 15.334-6.851 15.334-15.334l-.001.002Zm-176.719-10.55c2.882 0 5.275 2.338 5.275 5.274 0 2.882-2.338 5.274-5.275 5.274h-9.298c-2.882 0-5.274-2.338-5.274-5.274 0-2.882 2.338-5.274 5.274-5.274h9.298Zm-26.154 0c2.882 0 5.274 2.338 5.274 5.274-.054 2.882-2.392 5.274-5.274 5.274H5.274c-2.881 0-5.274-2.338-5.274-5.274 0-2.882 2.338-5.274 5.274-5.274h9.353Zm51.33 0c2.882 0 5.275 2.338 5.275 5.274-.055 2.882-2.393 5.274-5.275 5.274H54.81c-2.882 0-5.274-2.338-5.274-5.274 0-2.882 2.338-5.274 5.274-5.274h11.147Zm23.273 0c2.882 0 5.274 2.338 5.274 5.274 0 2.882-2.338 5.274-5.274 5.274h-9.353c-2.882 0-5.274-2.338-5.274-5.274 0-2.882 2.338-5.274 5.274-5.274h9.353Zm25.012-68.078a14.225 14.225 0 0 0 14.247 14.246 14.225 14.225 0 0 0-14.247 14.246v-.022l-.003-.292A14.224 14.224 0 0 0 100.31 51.17l-.315-.003a14.225 14.225 0 0 0 14.246-14.246Z" fill="#E17107"/></svg>
